src/assets/trophy.svg

<svg xmlns="http://www.w3.org/2000/svg" width="1176" height="2122" fill="none" viewBox="0 0 1176 2122">
    <path fill="#fff" stroke="#7f42e1" stroke-linecap="round" stroke-linejoin="round" stroke-width="22" d="M438.359 215.621c37.262-10.314 144.137-29.652 167.491-34.825 48.932-10.748 140.781 122.06 173.228 161.516 32.447 39.457-147.94 44.495-171.798 32.178S438.359 215.621 438.359 215.621"/>
    <path fill="#fff" stroke="#7f42e1" stroke-linecap="round" stroke-linejoin="round" stroke-width="22" d="M541.841 300.117c-46.498 15.501-80.912 36.184-87.987 84.596-8.258 56.634 80.279 295.049 94.819 344.114 14.539 49.065-101.554 61.058-101.554 61.058l-89.953-359.108 81.488-200.51 103.169 69.898z"/>
    <path fill="#d3f0ff" stroke="#7f42e1" stroke-linecap="round" stroke-linejoin="round" stroke-width="22" d="M855.043 1954.59c-51.173 106.41-213.975 134.26-363.626 62.13-149.651-72.12-229.469-216.85-178.274-323.31 3.201-6.66 46.745-99.56 50.775-105.59 60.59-90.51 172.558-24.16 312.851 43.46 140.246 67.59 261.816 113.86 229.049 217.72-2.217 6.96-47.552 98.89-50.775 105.59"/>
    <path fill="#fff" stroke="#7f42e1" stroke-linecap="round" stroke-linejoin="round" stroke-width="22" d="M542.192 1911.14c149.641 72.12 312.443 44.3 363.626-62.14 51.184-106.44-28.633-251.19-178.274-323.31-149.642-72.12-312.443-44.3-363.626 62.13-51.184 106.44 28.632 251.19 178.274 323.32"/>
    <path fill="#d3f0ff" stroke="#7f42e1" stroke-linecap="round" stroke-linejoin="round" stroke-width="22" d="M613.199 318.711c-36.769-49.68-106.201-144.52-203.267-91.344-97.065 53.177-96.452 171.979-83.108 248.249 11.881 68.125 177.635 567.134 188.882 608.984 11.246 41.85 36.443-146.11 18.778-175.749-17.666-29.639-131.237-389.294-141.358-459.309-11.521-79.608 14.461-141.665 52.355-159.048 57.156-26.254 120.552 88.898 148.216 136.723 30.75 53.155 113.115 22.116 71.396-36.284z"/>
    <path fill="#fff" d="M438.925 1634.43c89.067 6.57 208.604-213.81 314.58-162.73s20.176 282.85 69.137 347.67"/>
    <path stroke="#7f42e1" stroke-linecap="round" stroke-linejoin="round" stroke-width="22" d="M438.925 1634.43c89.067 6.57 208.604-213.81 314.58-162.73s20.176 282.85 69.137 347.67"/>
    <path fill="#fff" stroke="#7f42e1" stroke-linecap="round" stroke-linejoin="round" stroke-width="22" d="M1638.54 1022.27c-105.11 218.57-582.94 709.15-929.584 542.07-346.647-167.07-261.62-846.966-156.515-1065.535C657.546 280.237 745.499 720.161 1045.4 864.702c299.9 144.538 698.24-61.003 593.14 157.568"/>
    <path fill="#fff" stroke="#7f42e1" stroke-linecap="round" stroke-linejoin="round" stroke-width="22" d="M905.191 1156.26c299.919 144.55 628.249 84.56 733.349-133.99 105.09-218.559-52.84-512.913-352.75-657.463-299.922-144.551-628.251-84.558-733.349 133.997s52.834 512.906 352.75 657.456"/>
    <path fill="#d3f0ff" stroke="#7f42e1" stroke-linecap="round" stroke-linejoin="round" stroke-width="22" d="M934.243 1095.85c260.387 125.5 543.667 77.11 632.727-108.076 89.05-185.188-49.85-437.051-310.24-562.551-260.388-125.5-543.668-77.113-632.721 108.076-89.053 185.188 49.844 437.051 310.234 562.551"/>
    <path stroke="#7f42e1" stroke-linecap="round" stroke-linejoin="round" stroke-width="22" d="M613.241 749.618c101.899-114.076 314.667-134.267 512.239-39.042 56.94 27.44 107.18 61.845 149.24 100.533m100 125.895c34.21 62.791 49.26 128.776 41.02 190.446"/>
    <path fill="#fff" stroke="#7f42e1" stroke-linecap="round" stroke-linejoin="round" stroke-width="22" d="M1652 1336.83c-29.45-52.53-92.17-126.93-134.23-178.36l-.05-.02c-48.9 33.43-109.12 51.23-109.12 51.23 17.14 21.95 55.39 113.04 105.28 180.52 46.4 62.74 51.22 109.34 11.9 165.03-46.99 66.58-57.21 91.46-146.61 41.42-54.91-30.71-147.52-80.11-250.82-128.85l-82.28 40.61 47.21 53.33c45.76-19.01 249.41 159.66 290.37 159.78 75.27.25 202.83-37.51 246.54-93.97 95.81-123.69 51.25-238.19 21.81-290.72"/>
    <path fill="#d3f0ff" stroke="#7f42e1" stroke-linecap="round" stroke-linejoin="round" stroke-width="22" d="M1527.91 1356.08c-36.77-50.92-93.35-117.65-119.31-146.4l.03.07-51.09 52.06c17.14 21.94 52.93 63.62 102.82 131.1 46.4 62.74 30.41 139.46-8.91 195.15-47 66.58-106.87 77.93-196.28 27.88-44.26-24.75-138.61-69.05-209.15-107.87l-54.84 53.78c78.59 42.56 185.88 101.83 264.89 137.77 59.73 27.14 168.91 51.94 250.03-52.82 95.82-123.69 58.58-239.8 21.81-290.72"/>
</svg>

<svg width="1176" height="2122" viewBox="0 0 1176 2122" fill="none" xmlns="http://www.w3.org/2000/svg">
<path d="M438.359 215.621C475.621 205.307 582.496 185.969 605.85 180.796C654.782 170.048 746.631 302.856 779.078 342.312C811.525 381.769 631.138 386.807 607.28 374.49C583.422 362.173 438.359 215.621 438.359 215.621Z" fill="white" stroke="#7F42E1" stroke-width="22" stroke-linecap="round" stroke-linejoin="round"/>
<path d="M541.841 300.117C495.343 315.618 460.929 336.301 453.854 384.713C445.596 441.347 534.133 679.762 548.673 728.827C563.212 777.892 447.119 789.885 447.119 789.885L357.166 430.777L438.654 230.267L541.823 300.165L541.841 300.117Z" fill="white" stroke="#7F42E1" stroke-width="22" stroke-linecap="round" stroke-linejoin="round"/>
<path d="M855.043 1954.59C803.87 2061 641.068 2088.85 491.417 2016.72C341.766 1944.6 261.948 1799.87 313.143 1693.41C316.344 1686.75 359.888 1593.85 363.918 1587.82C424.508 1497.31 536.476 1563.66 676.769 1631.28C817.015 1698.87 938.585 1745.14 905.818 1849C903.601 1855.96 858.266 1947.89 855.043 1954.59Z" fill="#D3F0FF" stroke="#7F42E1" stroke-width="22" stroke-linecap="round" stroke-linejoin="round"/>
<path d="M542.192 1911.14C691.833 1983.26 854.635 1955.44 905.818 1849C957.002 1742.56 877.185 1597.81 727.544 1525.69C577.902 1453.57 415.101 1481.39 363.918 1587.82C312.734 1694.26 392.55 1839.01 542.192 1911.14Z" fill="white" stroke="#7F42E1" stroke-width="22" stroke-linecap="round" stroke-linejoin="round"/>
<path d="M613.199 318.711C576.43 269.031 506.998 174.191 409.932 227.367C312.867 280.544 313.48 399.346 326.824 475.616C338.705 543.741 504.459 1042.75 515.706 1084.6C526.952 1126.45 552.149 938.49 534.484 908.851C516.818 879.212 403.247 519.557 393.126 449.542C381.605 369.934 407.587 307.877 445.481 290.494C502.637 264.24 566.033 379.392 593.697 427.217C624.447 480.372 706.812 449.333 665.093 390.933L613.199 318.711Z" fill="#D3F0FF" stroke="#7F42E1" stroke-width="22" stroke-linecap="round" stroke-linejoin="round"/>
<path d="M438.925 1634.43C527.992 1641 647.529 1420.62 753.505 1471.7C859.481 1522.78 773.681 1754.55 822.642 1819.37" fill="white"/>
<path d="M438.925 1634.43C527.992 1641 647.529 1420.62 753.505 1471.7C859.481 1522.78 773.681 1754.55 822.642 1819.37" stroke="#7F42E1" stroke-width="22" stroke-linecap="round" stroke-linejoin="round"/>
<path d="M1638.54 1022.27C1533.43 1240.84 1055.6 1731.42 708.956 1564.34C362.309 1397.27 447.336 717.374 552.441 498.805C657.546 280.237 745.499 720.161 1045.4 864.702C1345.3 1009.24 1743.64 803.699 1638.54 1022.27Z" fill="white" stroke="#7F42E1" stroke-width="22" stroke-linecap="round" stroke-linejoin="round"/>
<path d="M905.191 1156.26C1205.11 1300.81 1533.44 1240.82 1638.54 1022.27C1743.63 803.711 1585.7 509.357 1285.79 364.807C985.868 220.256 657.539 280.249 552.441 498.804C447.343 717.359 605.275 1011.71 905.191 1156.26Z" fill="white" stroke="#7F42E1" stroke-width="22" stroke-linecap="round" stroke-linejoin="round"/>
<path d="M934.243 1095.85C1194.63 1221.35 1477.91 1172.96 1566.97 987.774C1656.02 802.586 1517.12 550.723 1256.73 425.223C996.342 299.723 713.062 348.11 624.009 533.299C534.956 718.487 673.853 970.35 934.243 1095.85Z" fill="#D3F0FF" stroke="#7F42E1" stroke-width="22" stroke-linecap="round" stroke-linejoin="round"/>
<path d="M613.241 749.618C715.14 635.542 927.908 615.351 1125.48 710.576C1182.42 738.016 1232.66 772.421 1274.72 811.109M1374.72 937.004C1408.93 999.795 1423.98 1065.78 1415.74 1127.45" stroke="#7F42E1" stroke-width="22" stroke-linecap="round" stroke-linejoin="round"/>
<path d="M1652 1336.83C1622.55 1284.3 1559.83 1209.9 1517.77 1158.47L1517.72 1158.45C1468.82 1191.88 1408.6 1209.68 1408.6 1209.68C1425.74 1231.63 1463.99 1322.72 1513.88 1390.2C1560.28 1452.94 1565.1 1499.54 1525.78 1555.23C1478.79 1621.81 1468.57 1646.69 1379.17 1596.65C1324.26 1565.94 1231.65 1516.54 1128.35 1467.8L1046.07 1508.41L1093.28 1561.74C1139.04 1542.73 1342.69 1721.4 1383.65 1721.52C1458.92 1721.77 1586.48 1684.01 1630.19 1627.55C1726 1503.86 1681.44 1389.36 1652 1336.83Z" fill="white" stroke="#7F42E1" stroke-width="22" stroke-linecap="round" stroke-linejoin="round"/>
<path d="M1527.91 1356.08C1491.14 1305.16 1434.56 1238.43 1408.6 1209.68L1408.63 1209.75L1357.54 1261.81C1374.68 1283.75 1410.47 1325.43 1460.36 1392.91C1506.76 1455.65 1490.77 1532.37 1451.45 1588.06C1404.45 1654.64 1344.58 1665.99 1255.17 1615.94C1210.91 1591.19 1116.56 1546.89 1046.02 1508.07L991.18 1561.85C1069.77 1604.41 1177.06 1663.68 1256.07 1699.62C1315.8 1726.76 1424.98 1751.56 1506.1 1646.8C1601.92 1523.11 1564.68 1407 1527.91 1356.08Z" fill="#D3F0FF" stroke="#7F42E1" stroke-width="22" stroke-linecap="round" stroke-linejoin="round"/>
</svg>
